!!!COM: Augusta Holme\s
!!!CNT: Francais
!!!TXO: Francais
!!!OTL: "Ogier le Danois"
!!!LYR: 
!!!OPR: 
!!!OPS: Op. 
!!!ONM: No. 
!!!ENC: Alyona Dzerbina
!!!YOR: Augusta Holme\s, Ogier le Danois
!!!YOR: Da Capo Press, New York, 1984
!!!ODT: 1899/
!!NB: Vocal melody and text encoded.
**kern	**text
*staff1	*staff1
=1-	=1-
*clefG2	*
*k[b-e-a-d-]	*
*met(C)	*
*M4/4	*
1r	.
=2	=2
1r	.
=3	=3
1r	.
=4	=4
1r	.
=5	=5
1r	.
=6	=6
1r	.
=7	=7
1r	.
=8	=8
1r	.
=9	=9
4r	.
4r	.
4r	.
8r	.
16r	.
{16e-	{"Ho-
=10	=10
4cc	-la\!
[4ee-	Ho!
(12ee-]	|
12r	.
12cc)	Gar-
(8a-	-diens
24a-	de
12b-)	ces
=11	=11
[2cc	tours!
8cc]}	}
8r	.
6r	.
{12cc	{O-
=12	=12
4dd-	-gier
8.ee-	le
16ff	Da-
4.cc	-nois
8cc	re/-
=13	=13
(8dd-	-cla-
24cc)	-me
12b-	sa
4ee-	vil-
[4a-	-le!
16a-]}	|}
16r	.
{8a-	{Je
=14	=14
4b-	viens
8.b-	d'Av-
16b-	-al-
4cc	-lon,
4cc	la
=15	=15
8.a-	mer-
16a-	-veil-
4a-	-leuse
[4dd-	i^-
8dd-]	-le
8dd-	Ou\-
=16	=16
8.b-	vi
16b-	-vent
4b-	les
4ee-	Preux
8ddn	dans
8cc	de
=17	=17
4.ff	clairs
8b-	se/-
[4ee-	-jours!
8ee-]}	|}
16r	.
{16e-	{Ho-
=18	=18
4cc	-la!
[4ee-	Ho!
4ee-]	|
8r	.
16r	.
16e-	Ho-
=19	=19
4cc	-la!
[4ee-	Ho!
4ee-]}	|}
4r	.
=20	=20
{4ff-	{ouv-
4ff-	-rez-
4.ff-	-moi
8ff-	ma
=21	=21
2cc-	vil-
4a-	-le,
8r	.
8f-	Gar-
=22	=22
2cc	-diens
4.ee-	de
8ee-	ces
=23	=23
[2a-	tours!
8a-]}	|}
8r	.
8r	.
{16e-	{Ca-
16e-	-va-
=24	=24
*k[b-e-a-d-g-c-f-]	*
4a-	-lier
4g-	ge/-
4a-	-ant,
8r	.
8b-	plus
=25	=25
4cc-	haut
8.dd-	que
16dd-	nos
4ee-	che^-
8ee-}	-nes,}
16r	.
{16e-	{Que
=26	=26
8.cc-	cla^-
16a-	-mes-
4fn	-tu
4b-	done
8.g-	en
16e-	le-
=27	=27
4b-	-vant
4b-	les
[4b-	bras?
8b-]}	|}
16r	.
{16e-	{Es
=28	=28
4a-	tu
8.g-	le
16g-	He/-
4a-	-raut
8r	.
8b-	des
=29	=29
4cc-	lut-
8.dd-	-tes
16dd-	pro-
4ee-	-chai-
16ee-}	-nes?}
16r	.
{8ee-	{Nous
=30	=30
(8ff-	som-
8ee-)	-mes
8dd-	|
8cc-	pe-
(8b-	-tits
8a-)	|
8g-	et
8f-	nous
=31	=31
4e-	per-
4d-	-lons
4e-}	bas,}
8r	.
{8e-	{Nous
=32	=32
4dd-	som-
8dd-	-mes
(8dd-	vain-
[4e-)	-cus,
8e-]	|
16e-	nous
16e-	ai-
=33	=33
4.dd-	-mons
8dd-	nos
(8.ddn	chai^-
16ff-)	|
8ff-}	-nes!}
8r	.
=34	=34
*M2/4	*
2r	.
=35	=35
*met(C)	*
*M4/4	*
{[4ee-	{Pas-
16ee-]	|
16cc-	-se
16a-	ton
16f-	che-
4e-	-min!
8r	.
8f-	Nous
=36	=36
8.a-	n'ou-
16a-	-vri-
4gn	-rons
4a-}	pas}
8r	.
16r	.
{16e-	{"Ho-
=37	=37
*k[b-e-a-d-]	*
4cc	-la!
[4ee-	Ho!
(12ee-]	|
12r	.
12cc)	Gar-
(8a-	-diens
24a-	de
12b-)	ces
=38	=38
[2cc	tours!
8cc]}	|}
8r	.
6r	.
{12cc	{O-
=39	=39
4dd-	-gier
8.ee-	le
16ff	Da-
4.cc	-nois
8cc	c'est
=40	=40
8dd-	moi,
24cc	vot-
12b-	-re
4ee-	mai^-
[4a-	-tre!
16a-]}	|}
16r	.
8a-	.
=41	=41
{8b-	{Vous
8b-	ne
8b-	vou-
8b-	-lez
4cc	done
4cc	pas
=42	=42
4a-	me
8a-	re-
8a-	-con-
4dd-	-nai^-
4dd-}	-tre?}
=43	=43
{8b-	{Je
8b-	ne
8b-	suis
8b-	par-
4ee-	-ti
8ddn	que
8cc	de-
=44	=44
4.ff	-puis
8dd-	trois
[4ee-	jours!
8ee-]}	|}
16r	.
{16e-	{Ho-
=45	=45
4cc	-la\!
[4ee-	Ho!
4ee-]	|
8r	.
16r	.
16e-	Ho-
=46	=46
4cc	-la!
[4ee-	Ho!
8ee-]}	|}
8r	.
6r	.
{12ee-	{C'est-
=47	=47
2ff-	-moi,
4.ff-	vo-
8ff-	-tre
=48	=48
(4aa-	mai^-
4ff-	|
4cc-)	-tre,
8r	.
8a-	Gar-
=49	=49
2ee-	-diens
4.ee-	de
8ee-	ces
=50	=50
[2a-	tours!"
8a-]}	|}
8r	.
8r	.
{8e-	{O-
=51	=51
*k[b-e-a-d-g-c-f-]	*
4a-	-gier
8.g-	le
16g-	Dan-
4a-	-nois?
8r	.
16b-	Et-
16b-	ran
=52	=52
4cc-	-ger,
8r	.
8dd-	tu
4ee-	re^-
8ee-}	-ves!}
8r	.
=53	=53
{8cc-	{Il
8cc-	a
8.a-	dis-
16fn	pa
4b-	-ru
8g-	de-
8e-	-puis
=54	=54
4b-	trois
4b-	cents
[4b-	ans!
8b-]}	|}
8r	.
=55	=55
{4a-	{Nois
8g-	ne
16e-	vou-
16g-	-lons
4.a-	plus
8b-	de
=56	=56
4cc-	guer-
8.dd-	-res
16dd-	sans
4ee-	tre^-
8ee-}	-ves...}
8r	.
=57	=57
{8ff-	{Nous
8ee-	av-
8dd-	-ons
8cc-	de
(8b-	l'or,
8a-)	|
8g-	des
8f-	pa-
=58	=58
4e-	-lais
4d-	lui-
4e-}	-sants,}
8r	.
{8e-	{Et
=59	=59
4dd-	pour
8dd-	nos
(8dd-	plai-
[4e-)	-sirs
8e-]	|
8e-	les
=60	=60
4dd-	nuits
8dd-	sont
8dd-	trop
(4.ddn	bre\-
8ffn)	|
=61	=61
*M2/4	*
4ffn}	-ves...}
4r	.
=62	=62
2r	.
=62	=62
*met(C)	*
*M4/4	*
{[4ee-	{Et
16ee-]	|
16cc-	nous
16a-	oub-
16f-	-li-
4e-	-ons
8r	.
16f-	les
16f-	he/-
=63	=63
4a-	-ros
4gn	ab-
4a-}	-sents!}
8r	.
16r	.
{16e-	{"A-
=64	=64
*k[b-e-a-d-]	*
4cc	-dieu
[4ee-	done
(12ee-]	|
12r	.
12cc)	gar-
(8a-	-diens
24a-	de
12b-)	ces
=65	=65
[2.cc	tours!
8cc]}	|}
8r	.
=66	=66
{8dd-	{Vous
8dd-	n'en-
8ee-	-ten-
8ff	-drez
[4cc	plus
8cc]	|
8cc	ma
=67	=67
(8een	voix
24ddn	qui
12cc)	vous
(2dd	cri-
8g)}	-e:}
8r	.
=68	=68
{[4g	{Gloi-
8g]	-re!
16r	.
16en	Hon-
[4cc	-neur!
8cc]	|
16r	.
16g	Ver-
=69	=69
[4een	-tu!
8ee]	|
16r	.
16cc	De-
[4ff	-voir!
8ff]	|
16ee	et
16ddn	Pa-
=70	=70
[1gg	-tri-
=71	=71
(4gg]	|
4ff)	.
[4ee-	-e!
8ee-]}	|}
8r	.
=72	=72
{[4dd-	{O
16dd-]	|
16b-	mon
16a-	seul
16g	de/-
[4cc	-sir,
8cc]	|
8cc	mes
=73	=73
[4ff	seu-
16ff]	|
(16dd-	|
16cc)	-les
16b-	a-
[4ee-	-mours,
8ee-]}	|}
{8a-	{O
=74	=74
(2gg-	Fran-
[4ff)	-ce!
16ff]	|
16r	.
8a-	O
=75	=75
(2ff-	Fran-
[4ee-)	-ce.
16ee-]	|
16r	.
8e-	O
=76	=76
2dd-	Fran-
4cc	-ce
4b-	fleu-
=77	=77
(8b-	-ri-
8a-)	|
[4cc	-e!
8cc]}	|}
8r	.
{(4ee-	{A-
=78	=78
[2.f)	-dieu
8f]	|
8f	A-
=79	=79
(2a-	-dieu!
4cc)	|
8r	.
8a-	A-
=80	=80
1ff	-dieu
=81	=81
2ee-	pour
2ee-	tou-
=82	=82
[2ee-	-jours!"
8ee-]}	|}
8r	.
4r	.
=83	=83
1r	.
=84	=84
1r	.
=85	=85
1r	.
=86	=86
1r	.
=87	=87
1r	.
=88	=88
1r	.
=89	=89
1r	.
==	==
*-	*-
